local/share/icons/dracula-icons-main/22/places/folder-camera.svg

<?xml version="1.0" encoding="UTF-8"?>
<svg xmlns="http://www.w3.org/2000/svg" xmlns:xlink="http://www.w3.org/1999/xlink" width="22" height="22" viewBox="0 0 22 22">
<path fill-rule="nonzero" fill="rgb(100%, 100%, 100%)" fill-opacity="1" d="M 8 5 L 7 6 L 6 6 C 4.890625 6 4 6.890625 4 8 L 4 15 C 4 16.109375 4.890625 17 6 17 L 16 17 C 17.109375 17 18 16.109375 18 15 L 18 8 C 18 6.890625 17.109375 6 16 6 L 15 6 L 14 5 Z M 8.828125 7 L 13.171875 7 L 14.171875 8 L 16 8 L 16 15 L 6 15 L 6 8 L 7.828125 8 Z M 11 8 C 9.34375 8 8 9.34375 8 11 C 8 12.65625 9.34375 14 11 14 C 12.65625 14 14 12.65625 14 11 C 14 9.34375 12.65625 8 11 8 Z M 11 10 C 11.550781 10 12 10.449219 12 11 C 12 11.550781 11.550781 12 11 12 C 10.449219 12 10 11.550781 10 11 C 10 10.449219 10.449219 10 11 10 Z M 11 10 "/>
</svg>

<svg width="22" height="22" version="1.1" viewBox="0 0 22 22" xmlns="http://www.w3.org/2000/svg">
 <defs>
  <style id="current-color-scheme" type="text/css">.ColorScheme-Text { color:#FFFFFF; } .ColorScheme-Highlight { color:#5294e2; }</style>
 </defs>
 <path class="ColorScheme-Text" fill="currentColor" d="m8 5-1 1h-1c-1.108 0-2 0.892-2 2v7c0 1.108 0.892 2 2 2h10c1.108 0 2-0.892 2-2v-7c0-1.108-0.892-2-2-2h-1l-1-1zm0.82812 2h4.3438l1 1h1.8281v7h-10v-7h1.8281zm2.1719 1a3 3 0 0 0-3 3 3 3 0 0 0 3 3 3 3 0 0 0 3-3 3 3 0 0 0-3-3zm0 2a1 1 0 0 1 1 1 1 1 0 0 1-1 1 1 1 0 0 1-1-1 1 1 0 0 1 1-1z"/>
</svg>
